svgs/sharp-thin/hand-fist.svg

<svg xmlns="http://www.w3.org/2000/svg" viewBox="0 0 448 512"><!--! Font Awesome Pro 6.6.0 by @fontawesome - https://fontawesome.com License - https://fontawesome.com/license (Commercial License) Copyright 2024 Fonticons, Inc. --><path d="M176 16l0 16 0 16 0 152 64 0 0-152 0-16 0-16-64 0zM160 200l0-152L96 48l0 152 64 0zm-80 0L80 48l0-16 16 0 64 0 0-16 0-16 16 0 64 0 16 0 0 16 0 16 64 0 16 0 0 16 0 16 64 0 16 0 0 16 0 112 0 8 0 24 0 16 0 24c0 48.7-25.6 91.4-64 115.4L352 504l0 8-16 0 0-8 0-129.1 0-4.6 4-2.3c35.9-20.8 60-59.5 60-104l0-24-64 0-16 0 0-16-64 0-8 0 0 64 0 8-8 0-104 0-8 0 0-16 8 0 96 0 0-64-40 0L48 216l0 56 0 8c0 52.4 38.7 95.7 89.1 102.9l6.9 1 0 6.9L144 504l0 8-16 0 0-8 0-106.4C75.8 387 35.8 342.5 32.3 288l-.3 0 0-8 0-8 0-64 0-8 8 0 40 0zm320 24l0-24 0-8 0-112-64 0 0 128 0 16 64 0zM256 200l0 8 64 0 0-128 0-16 0-16-64 0 0 152z"/></svg>

<svg xmlns="http://www.w3.org/2000/svg" viewBox="0 0 448 512"><!--! Font Awesome Pro 6.5.2 by @fontawesome - https://fontawesome.com License - https://fontawesome.com/license (Commercial License) Copyright 2024 Fonticons, Inc. --><path d="M176 16V32 48 200h64V48 32 16H176zM160 200V48H96V200h64zm-80 0V48 32H96h64V16 0h16 64 16V16 32h64 16V48 64h64 16V80 192v8 24 16 24c0 48.7-25.6 91.4-64 115.4V504v8H336v-8V374.9v-4.6l4-2.3c35.9-20.8 60-59.5 60-104V240H336 320V224H256h-8v64 8h-8H136h-8V280h8 96V216H192 48v56 8c0 52.4 38.7 95.7 89.1 102.9l6.9 1v6.9V504v8H128v-8V397.6C75.8 387 35.8 342.5 32.3 288H32v-8-8V208v-8h8H80zm320 24V200v-8V80H336V208v16h64zM256 200v8h64V80 64 48H256V200z"/></svg>
